assets/images/kamco-logo-version1.svg

<svg width="202" height="127" viewBox="0 0 202 127" fill="none" xmlns="http://www.w3.org/2000/svg">
<path fill-rule="evenodd" clip-rule="evenodd" d="M4.13123 40.8914L99.1929 0.585229C100.441 0.0581987 101.792 0.0982444 102.948 0.585822L198.423 41.0663C200.214 41.8227 201.285 43.5302 201.286 45.3248H201.306V121.427C201.306 124 199.174 126.086 196.545 126.086H5.59742C2.96849 126.086 0.837097 124 0.837097 121.427V45.325C0.837097 43.2523 2.21985 41.4961 4.13123 40.8914ZM101.071 9.89873L10.3577 48.3614V116.768H191.785V48.3614L101.071 9.89873Z" fill="white"/>
<path fill-rule="evenodd" clip-rule="evenodd" d="M5.59747 45.3245L101.072 4.84362L196.546 45.3245V121.427H5.59747V45.3245Z" fill="#E30016"/>
<path fill-rule="evenodd" clip-rule="evenodd" d="M34.2325 87.6992L47.2074 69.726H37.3643L28.1374 83.9296C27.242 85.5145 26.2923 87.0983 25.3968 88.7374H25.2295V69.726H17.0088V111.737H25.2295V97.3688L28.4167 93.163L38.3717 111.737H47.8225L34.2325 87.6992ZM74.6655 93.3806C74.6655 86.7162 72.0368 80.7067 62.3622 80.7067C57.4961 80.7067 53.6384 82.0729 51.5682 83.2746L53.1341 88.5187C55.1477 87.317 57.9437 86.4434 60.7963 86.4434C65.3255 86.4434 66.3883 88.7374 66.3883 91.7426C56.4898 91.7426 49.3873 95.4029 49.3873 103.215C49.3873 108.131 52.9668 112.338 58.7273 112.338C62.1937 112.338 65.2136 110.973 67.0033 108.568H67.1718L67.6749 111.737H75.1121C74.7774 109.879 74.6655 107.203 74.6655 104.526V93.3806ZM66.6122 101.303C66.6122 105.181 63.3684 106.547 61.4113 106.547C59.3423 106.547 57.4961 105.29 57.4961 102.395C57.4961 97.9697 62.1383 96.9325 66.6122 96.9325V101.303ZM125.164 93.2724C125.164 84.4763 120.97 80.7067 115.545 80.7067C112.078 80.7067 108.89 82.0729 106.318 85.7873H106.206C104.976 82.6738 102.068 80.7067 98.2647 80.7067C93.6236 80.7067 90.8829 83.2194 89.429 85.4051H89.2617L88.8705 81.3076H81.8234C81.9353 83.9933 82.0472 86.8892 82.0472 90.4496V111.737H90.156V93.3997C90.156 89.3382 92.84 87.2629 95.1329 87.2629C98.3767 87.2629 99.5513 90.1577 99.5513 93.7638V111.737H107.66V93.2724C107.66 89.0102 110.232 87.2629 112.525 87.2629C115.825 87.2629 117.055 90.1577 117.055 94.5281V111.737H125.164V93.2724ZM152.512 104.908C151.17 105.509 149.547 105.891 147.478 105.891C142.725 105.891 139.202 102.449 139.202 96.4952C139.202 91.1407 142.222 87.0442 147.423 87.0442C149.716 87.0442 151.226 87.5357 152.289 88.0272L153.631 81.8542C152.289 81.3076 149.828 80.7067 147.142 80.7067C136.852 80.7067 130.813 87.6992 130.813 96.8232C130.813 106.493 136.741 112.284 145.857 112.284C149.156 112.284 152.009 111.628 153.407 110.973L152.512 104.908ZM171.693 80.6526C163.25 80.6526 156.93 86.4434 156.93 96.6587C156.93 106.547 162.97 112.338 171.359 112.338C178.293 112.338 185.898 107.858 185.898 96.2766C185.898 87.0442 180.418 80.6526 171.693 80.6526ZM177.51 96.44C177.51 101.849 175.385 106.384 171.471 106.384C167.443 106.384 165.319 101.904 165.319 96.4952C165.319 91.8509 166.94 86.6068 171.526 86.6068C175.776 86.6068 177.51 91.6874 177.51 96.44Z" fill="white"/>
<path fill-rule="evenodd" clip-rule="evenodd" d="M177.108 61.0945H175.508V64.4458H177.159C178.091 64.4458 178.764 64.3174 179.166 64.0647C179.573 63.8089 179.776 63.4033 179.776 62.8365C179.776 62.224 179.564 61.7813 179.145 61.5043C178.722 61.2314 178.044 61.0945 177.108 61.0945ZM177.456 59.8536C178.895 59.8536 179.975 60.086 180.699 60.5531C181.423 61.0159 181.783 61.707 181.783 62.6295C181.783 63.3493 181.576 63.949 181.165 64.4246C180.75 64.9002 180.169 65.2112 179.416 65.3556L181.732 69.9807H179.539L177.43 65.6624H175.508V69.9807H173.552V59.8536H177.456ZM185.188 65.174C185.188 64.0944 184.998 63.0807 184.612 62.1369C184.227 61.1943 183.663 60.3631 182.926 59.6476C182.165 58.8939 181.301 58.3238 180.335 57.9343C179.37 57.5415 178.341 57.3472 177.248 57.3472C176.173 57.3472 175.157 57.5372 174.204 57.914C173.251 58.2941 172.416 58.8408 171.705 59.5478C170.926 60.3174 170.329 61.1773 169.909 62.1369C169.491 63.0966 169.283 64.0859 169.283 65.1029C169.283 66.1125 169.482 67.0806 169.884 68.0116C170.286 68.9468 170.866 69.7823 171.621 70.5222C172.366 71.2673 173.221 71.8374 174.186 72.2355C175.148 72.6368 176.147 72.8353 177.171 72.8353C178.251 72.8353 179.272 72.6399 180.238 72.2556C181.203 71.8671 182.08 71.3003 182.875 70.5593C183.621 69.848 184.192 69.0328 184.591 68.1103C184.989 67.1878 185.188 66.208 185.188 65.174ZM177.209 56.1561C178.459 56.1561 179.645 56.3833 180.758 56.8345C181.877 57.2888 182.872 57.947 183.739 58.8111C184.591 59.6507 185.243 60.6147 185.701 61.6942C186.154 62.7781 186.382 63.9118 186.382 65.0912C186.382 66.3109 186.154 67.4574 185.701 68.5286C185.243 69.5996 184.582 70.5477 183.714 71.3703C182.812 72.227 181.801 72.8841 180.678 73.3395C179.56 73.7992 178.4 74.0263 177.209 74.0263C175.994 74.0263 174.834 73.7992 173.729 73.3395C172.624 72.8841 171.632 72.2185 170.757 71.3459C169.888 70.4893 169.228 69.5253 168.77 68.4542C168.317 67.3831 168.089 66.2621 168.089 65.0912C168.089 63.9118 168.326 62.7707 168.804 61.6656C169.279 60.5616 169.964 59.568 170.858 58.6911C171.692 57.8557 172.65 57.2273 173.729 56.7973C174.809 56.3706 175.969 56.1561 177.209 56.1561Z" fill="white"/>
<path fill-rule="evenodd" clip-rule="evenodd" d="M61.5489 66.6153C61.8647 67.8321 61.3458 68.7164 59.9583 69.0771C58.7426 69.3931 57.9305 69.0214 57.4943 69.1345C57.1826 69.2159 57.0103 69.5769 57.0911 69.889C57.3097 70.7314 59.2611 70.5573 60.2586 70.2978C62.2223 69.7873 63.3643 68.225 62.8299 66.1658C62.1212 63.4358 59.5415 64.0731 57.8427 63.682C57.436 63.5883 56.801 63.3868 56.5338 62.3574C56.1819 61.0002 57.0315 60.3628 58.029 60.1034C59.0888 59.828 59.6073 60.1595 60.0904 60.034C60.4803 59.9323 60.641 59.5907 60.5602 59.2787C60.3332 58.4054 58.3987 58.7086 57.6197 58.911C55.6869 59.4135 54.7706 60.8839 55.2607 62.7715C55.9774 65.5325 58.5686 64.8753 60.2515 65.2704C60.694 65.3721 61.2857 65.601 61.5489 66.6153ZM65.3699 68.476C65.4348 68.8084 65.778 69.0533 66.1259 68.9852C66.4734 68.9171 66.6991 68.5604 66.6342 68.2285L64.6391 58.0262C64.5742 57.6943 64.2311 57.4494 63.8836 57.5174C63.5356 57.5855 63.3099 57.9417 63.3749 58.2741L65.3699 68.476ZM75.5829 67.3914C75.9971 67.3269 76.2338 66.9636 76.1742 66.5813L74.5876 56.3891C74.5328 56.0386 74.2158 55.7783 73.8656 55.8327C73.5154 55.8875 73.2602 56.2371 73.3145 56.5876L74.5911 64.7891L68.6898 57.0312C68.5255 56.8125 68.2327 56.7113 67.9621 56.7533C67.5646 56.8152 67.3253 57.1626 67.3871 57.5608L68.9737 67.7529C69.0284 68.1034 69.346 68.3637 69.6957 68.3094C70.0459 68.2546 70.3011 67.905 70.2463 67.5545L68.9697 59.3529L74.8737 67.1266C75.0358 67.33 75.3285 67.4307 75.5829 67.3914ZM77.8005 62.9413C78.0275 65.4128 79.3147 66.9296 81.7845 66.7024C83.2435 66.568 84.5652 65.8154 84.4958 65.0609C84.468 64.756 84.2039 64.5213 83.867 64.5522C83.6427 64.573 83.5729 64.6928 83.315 64.8784C82.8646 65.2598 82.3824 65.4658 81.7571 65.5232C79.9449 65.6899 79.2485 64.6212 79.0833 62.8233L78.7685 59.3883C78.6033 57.5908 79.0935 56.413 80.9057 56.2463C81.531 56.1889 82.0428 56.3038 82.5546 56.5964C82.8262 56.7334 82.9326 56.8373 83.1574 56.8165C83.4939 56.7856 83.7111 56.5062 83.6829 56.2012C83.614 55.4468 82.1771 54.9479 80.7181 55.0822C78.2483 55.3089 77.2587 57.0348 77.4853 59.5067L77.8005 62.9413ZM92.2125 65.1108C92.1917 64.7891 91.8681 64.5359 91.5307 64.558L87.5458 64.8218L87.2937 61.0107L90.8127 60.7774C91.1664 60.754 91.4216 60.4627 91.3982 60.1087C91.3749 59.7551 91.0511 59.5019 90.7301 59.5231L87.2106 59.7564L86.9621 55.9931L90.7866 55.7399C91.1399 55.7165 91.4123 55.4397 91.389 55.0858C91.3656 54.7322 91.0569 54.4617 90.7036 54.4851L86.3491 54.7737C85.915 54.8024 85.6196 55.2095 85.6439 55.5794L86.2935 65.4057C86.3315 65.9846 86.8252 66.1296 87.3555 66.0947L91.6137 65.8127C91.967 65.7893 92.2372 65.4808 92.2125 65.1108ZM121.323 65.8229C121.296 66.1606 121.562 66.4881 121.915 66.5155C122.268 66.5428 122.581 66.2595 122.607 65.9223L123.4 55.6214C123.429 55.2356 123.148 54.9068 122.762 54.8772C122.618 54.8661 122.503 54.8895 122.368 54.9598L119.05 56.7409C118.847 56.8545 118.734 57.056 118.717 57.281C118.695 57.57 118.964 57.8498 119.237 57.8706C119.462 57.8882 119.732 57.7309 119.969 57.6037L122.041 56.4867L121.323 65.8229ZM131.617 62.3587C131.337 64.5814 130.644 66.3457 128.695 66.0995C128.184 66.035 127.737 65.8485 127.399 65.6925C127.261 65.6262 127.153 65.5798 127.057 65.5678C126.738 65.5277 126.444 65.799 126.408 66.0872C126.311 66.8544 128.198 67.2067 128.758 67.2769C131.154 67.5797 132.528 65.6903 133.028 61.7245C133.452 58.3665 132.935 56.0267 130.315 55.6957C128.046 55.4097 126.844 56.9636 126.596 58.9304C126.295 61.313 127.608 62.6156 129.366 62.8378C130.085 62.9284 130.924 62.8396 131.617 62.3587ZM131.821 61.0033C131.325 61.4607 130.462 61.7418 129.583 61.6304C128.369 61.477 127.66 60.6568 127.856 59.1055C128.011 57.8741 128.671 56.7555 130.109 56.9371C131.723 57.1409 132.111 58.7006 131.869 60.6196L131.821 61.0033ZM139.809 63.7076C139.42 65.9139 138.641 67.642 136.706 67.2995C136.198 67.2098 135.761 67.0012 135.432 66.8283C135.297 66.7555 135.192 66.7041 135.097 66.6874C134.78 66.6312 134.473 66.888 134.422 67.1735C134.288 67.935 136.155 68.3805 136.71 68.4787C139.089 68.8994 140.555 67.0803 141.25 63.1446C141.839 59.8113 141.439 57.4489 138.838 56.9888C136.586 56.5902 135.309 58.0827 134.964 60.0349C134.546 62.3998 135.793 63.7659 137.537 64.0745C138.251 64.2009 139.093 64.1535 139.809 63.7076ZM140.08 62.364C139.562 62.7967 138.686 63.0346 137.814 62.8798C136.608 62.6664 135.942 61.8121 136.214 60.2727C136.43 59.0502 137.145 57.9656 138.572 58.2184C140.174 58.5017 140.484 60.0787 140.147 61.9835L140.08 62.364ZM148.977 67.7684C149.315 66.3382 148.677 65.2571 147.733 64.421C148.83 64.0483 149.587 63.3664 149.84 62.2969C150.226 60.6634 149.149 59.1991 147.425 58.7912C145.748 58.3943 144.097 59.1466 143.689 60.8747C143.407 62.0693 143.873 63.0407 144.623 63.7845C143.405 64.1089 142.35 64.7896 142.02 66.1879C141.586 68.0256 142.748 69.6918 144.753 70.1665C146.791 70.6487 148.539 69.622 148.977 67.7684ZM148.618 62.0742C148.38 63.0809 147.399 63.5936 146.344 63.5759C145.385 63.1503 144.651 62.2642 144.904 61.1951C145.146 60.1728 146.127 59.6601 147.177 59.9085C148.212 60.1533 148.86 61.0523 148.618 62.0742ZM147.743 67.4595C147.464 68.6387 146.325 69.3295 145.024 69.0219C143.755 68.7213 142.991 67.6128 143.273 66.4182C143.555 65.2236 144.716 64.6512 145.998 64.6893C147.106 65.1833 148.047 66.1707 147.743 67.4595ZM100.874 50.8826C83.2682 51.0625 67.089 53.7426 54.1272 58.1397L53.8883 57.1603C67.0312 52.7137 83.4281 50.0173 101.246 49.8719L100.874 50.8826ZM107.457 49.9249C124.048 50.3448 139.287 52.9784 151.647 57.1603L151.408 58.1397C139.226 54.0069 124.201 51.3909 107.822 50.9419L107.457 49.9249ZM95.2193 68.7023C81.1844 69.1726 68.6099 70.9369 59.1233 73.5489C58.732 73.6567 58.3466 73.7655 57.9663 73.876L57.7284 72.9005C58.1006 72.7927 58.4773 72.6858 58.8597 72.5806C68.4963 69.9275 81.2745 68.1419 95.5156 67.6849L95.2193 68.7023ZM113.235 67.8117C126.182 68.4181 137.77 70.129 146.676 72.5806C147.058 72.6858 147.435 72.7927 147.807 72.9005L147.569 73.876C147.189 73.7655 146.803 73.6567 146.413 73.5489C137.654 71.1375 126.264 69.4483 113.523 68.8331L113.235 67.8117ZM104.361 48.5937L107.122 56.2866L115.385 56.6097L108.928 61.6149L111.175 69.5805L104.424 64.9809L97.5486 69.5805L99.8329 61.7325L93.3381 56.6097L101.501 56.359L104.361 48.5937Z" fill="white"/>
</svg>

<svg xmlns="http://www.w3.org/2000/svg" width="202" height="127" fill="none"><path fill="#fff" fill-rule="evenodd" d="M4.131 40.891 99.193.585a4.82 4.82 0 0 1 3.755 0l95.475 40.481c1.791.757 2.862 2.464 2.863 4.259h.02v76.102c0 2.573-2.132 4.659-4.761 4.659H5.597c-2.629 0-4.76-2.086-4.76-4.659V45.325c0-2.073 1.383-3.829 3.294-4.434M101.071 9.9 10.358 48.36v68.407h181.427V48.361z" clip-rule="evenodd"/><path fill="#E30016" fill-rule="evenodd" d="m5.597 45.325 95.475-40.481 95.474 40.48v76.103H5.597z" clip-rule="evenodd"/><path fill="#fff" fill-rule="evenodd" d="m34.233 87.7 12.974-17.974h-9.843L28.137 83.93c-.895 1.584-1.845 3.168-2.74 4.807h-.167V69.726h-8.221v42.011h8.22V97.369l3.188-4.206 9.955 18.574h9.45zm40.433 5.68c0-6.664-2.63-12.673-12.304-12.673-4.866 0-8.724 1.366-10.794 2.568l1.566 5.244c2.014-1.202 4.81-2.076 7.662-2.076 4.53 0 5.592 2.294 5.592 5.3-9.898 0-17 3.66-17 11.472 0 4.916 3.579 9.123 9.34 9.123 3.466 0 6.486-1.365 8.275-3.77h.169l.503 3.169h7.437c-.335-1.858-.447-4.534-.447-7.211zm-8.054 7.923c0 3.878-3.244 5.244-5.2 5.244-2.07 0-3.916-1.257-3.916-4.152 0-4.425 4.642-5.462 9.116-5.462zm58.552-8.03c0-8.797-4.194-12.566-9.619-12.566-3.467 0-6.655 1.366-9.227 5.08h-.112c-1.23-3.113-4.138-5.08-7.941-5.08-4.641 0-7.382 2.512-8.836 4.698h-.167l-.391-4.097h-7.048c.112 2.685.224 5.581.224 9.142v21.287h8.109V93.4c0-4.062 2.684-6.137 4.977-6.137 3.244 0 4.418 2.895 4.418 6.5v17.974h8.109V93.272c0-4.262 2.572-6.01 4.865-6.01 3.3 0 4.53 2.896 4.53 7.266v17.209h8.109zm27.348 11.635c-1.342.601-2.965.983-5.034.983-4.753 0-8.276-3.442-8.276-9.396 0-5.354 3.02-9.45 8.221-9.45 2.293 0 3.803.49 4.866.982l1.342-6.173c-1.342-.546-3.803-1.147-6.489-1.147-10.29 0-16.329 6.992-16.329 16.116 0 9.67 5.928 15.461 15.044 15.461 3.299 0 6.152-.656 7.55-1.311zm19.181-24.255c-8.443 0-14.763 5.79-14.763 16.006 0 9.888 6.04 15.679 14.429 15.679 6.934 0 14.539-4.48 14.539-16.061 0-9.233-5.48-15.624-14.205-15.624m5.817 15.787c0 5.409-2.125 9.944-6.039 9.944-4.028 0-6.152-4.48-6.152-9.889 0-4.644 1.621-9.888 6.207-9.888 4.25 0 5.984 5.08 5.984 9.833M177.108 61.095h-1.6v3.35h1.651c.932 0 1.605-.128 2.007-.38.407-.256.61-.662.61-1.228q-.001-.919-.631-1.333-.634-.41-2.037-.41m.348-1.241q2.158-.001 3.243.7 1.085.692 1.084 2.075 0 1.081-.618 1.796-.621.713-1.749.93l2.316 4.626h-2.193l-2.109-4.319h-1.922v4.319h-1.956V59.854zm7.732 5.32q.001-1.62-.576-3.037a7.3 7.3 0 0 0-1.686-2.49 7.8 7.8 0 0 0-2.591-1.713 8.1 8.1 0 0 0-3.087-.587q-1.613 0-3.044.567a7.4 7.4 0 0 0-2.499 1.634 8.3 8.3 0 0 0-1.796 2.589 7.4 7.4 0 0 0-.626 2.966q-.001 1.514.601 2.909.604 1.401 1.737 2.51a7.8 7.8 0 0 0 2.565 1.713c.962.402 1.961.6 2.985.6q1.619-.001 3.067-.58a8.5 8.5 0 0 0 2.637-1.696 7.337 7.337 0 0 0 2.313-5.385m-7.979-9.018c1.25 0 2.436.227 3.549.678a9 9 0 0 1 2.981 1.977 8.9 8.9 0 0 1 1.962 2.883 8.7 8.7 0 0 1 .681 3.397q0 1.83-.681 3.438a8.5 8.5 0 0 1-1.987 2.841 9.6 9.6 0 0 1-3.036 1.97 9 9 0 0 1-3.469.686 9 9 0 0 1-3.48-.686 9.1 9.1 0 0 1-2.972-1.994 9 9 0 0 1-1.987-2.892 8.55 8.55 0 0 1-.681-3.363q-.001-1.769.715-3.425a9.3 9.3 0 0 1 2.054-2.975 8.4 8.4 0 0 1 2.871-1.894 9.4 9.4 0 0 1 3.48-.64M61.549 66.615c.316 1.217-.203 2.101-1.59 2.462-1.216.316-2.029-.056-2.465.058-.311.08-.484.442-.403.754.219.842 2.17.668 3.168.409 1.963-.51 3.105-2.073 2.57-4.132-.708-2.73-3.288-2.093-4.986-2.484-.407-.094-1.042-.295-1.31-1.325-.351-1.357.498-1.994 1.496-2.254 1.06-.275 1.578.056 2.061-.069.39-.102.551-.443.47-.755-.227-.874-2.161-.57-2.94-.368-1.933.502-2.85 1.973-2.36 3.86.717 2.761 3.309 2.104 4.992 2.5.442.101 1.034.33 1.297 1.344m3.82 1.861a.657.657 0 0 0 .757.51.66.66 0 0 0 .508-.758L64.64 58.027a.657.657 0 0 0-.755-.509.657.657 0 0 0-.51.757zm10.214-1.085a.695.695 0 0 0 .591-.81L74.588 56.39c-.055-.35-.372-.61-.722-.556a.675.675 0 0 0-.552.755l1.277 8.201-5.901-7.758a.77.77 0 0 0-.728-.278c-.397.062-.637.41-.575.808l1.587 10.192c.054.35.372.61.722.556a.674.674 0 0 0 .55-.754l-1.276-8.202 5.904 7.774a.78.78 0 0 0 .709.264m2.218-4.45c.227 2.472 1.514 3.989 3.983 3.761 1.46-.134 2.781-.887 2.712-1.641a.564.564 0 0 0-.629-.509c-.224.021-.294.14-.552.326-.45.382-.933.588-1.558.645-1.812.167-2.508-.902-2.674-2.7l-.314-3.435c-.166-1.797.325-2.975 2.137-3.142a2.66 2.66 0 0 1 1.649.35c.271.137.378.241.602.22a.564.564 0 0 0 .526-.615c-.069-.754-1.506-1.253-2.965-1.119-2.47.227-3.46 1.953-3.233 4.425zm14.412 2.17c-.021-.322-.345-.575-.682-.553l-3.985.264-.252-3.811 3.519-.234a.62.62 0 0 0 .585-.668.64.64 0 0 0-.668-.586l-3.52.233-.248-3.763 3.825-.253c.353-.023.625-.3.602-.654a.647.647 0 0 0-.685-.6l-4.355.288c-.434.028-.73.435-.705.805l.65 9.827c.038.579.531.724 1.062.689l4.258-.282a.65.65 0 0 0 .599-.702m29.11.712a.656.656 0 0 0 .592.693.657.657 0 0 0 .692-.594l.793-10.3a.69.69 0 0 0-.638-.745.68.68 0 0 0-.394.083l-3.318 1.78a.66.66 0 0 0-.333.541c-.022.289.247.569.52.59.225.017.495-.14.732-.267l2.072-1.117zm10.294-3.464c-.28 2.222-.973 3.987-2.922 3.74-.511-.064-.958-.25-1.296-.407a1.2 1.2 0 0 0-.342-.124c-.319-.04-.613.231-.649.52-.097.766 1.79 1.119 2.35 1.189 2.396.303 3.77-1.587 4.27-5.553.424-3.357-.093-5.697-2.713-6.028-2.269-.286-3.471 1.268-3.719 3.234-.301 2.383 1.012 3.686 2.77 3.908.719.09 1.558.002 2.251-.48m.204-1.356c-.496.458-1.359.739-2.238.627-1.214-.153-1.923-.973-1.727-2.525.155-1.23.815-2.35 2.253-2.168 1.614.204 2.002 1.764 1.76 3.683zm7.988 2.705c-.389 2.206-1.168 3.934-3.103 3.591-.508-.09-.945-.298-1.274-.47a1.2 1.2 0 0 0-.335-.142c-.317-.056-.624.201-.675.487-.134.761 1.733 1.206 2.288 1.305 2.379.42 3.845-1.399 4.54-5.334.589-3.334.189-5.696-2.412-6.156-2.252-.399-3.529 1.094-3.874 3.046-.418 2.365.829 3.73 2.573 4.04.714.126 1.556.078 2.272-.367m.271-1.344c-.518.433-1.394.67-2.266.516-1.206-.214-1.872-1.068-1.6-2.607.216-1.223.931-2.307 2.358-2.055 1.602.284 1.912 1.86 1.575 3.765zm8.897 5.404c.338-1.43-.3-2.51-1.244-3.347 1.097-.373 1.854-1.055 2.107-2.124.386-1.634-.691-3.098-2.415-3.506-1.677-.397-3.328.356-3.736 2.084-.282 1.194.184 2.166.934 2.91-1.218.324-2.273 1.005-2.603 2.403-.434 1.838.728 3.504 2.733 3.978 2.038.483 3.786-.544 4.224-2.398m-.359-5.694c-.238 1.007-1.219 1.52-2.274 1.502-.959-.426-1.693-1.312-1.44-2.38.242-1.023 1.223-1.536 2.273-1.288 1.035.245 1.683 1.144 1.441 2.166m-.875 5.386c-.279 1.179-1.418 1.87-2.719 1.562-1.269-.3-2.033-1.41-1.751-2.604s1.443-1.767 2.725-1.729c1.108.494 2.049 1.482 1.745 2.77m-46.869-16.577c-17.606.18-33.785 2.86-46.747 7.257l-.239-.98c13.143-4.446 29.54-7.143 47.358-7.288zm6.583-.958c16.591.42 31.83 3.053 44.19 7.235l-.239.98c-12.182-4.133-27.207-6.75-43.586-7.198zM95.219 68.702c-14.035.47-26.61 2.235-36.096 4.847a86 86 0 0 0-1.157.327l-.238-.976a87 87 0 0 1 1.132-.32c9.636-2.653 22.415-4.438 36.656-4.895zm18.016-.89c12.947.606 24.535 2.317 33.441 4.769q.573.158 1.131.32l-.238.975q-.57-.166-1.156-.327c-8.759-2.412-20.149-4.1-32.89-4.716zm-8.874-19.218 2.761 7.693 8.263.323-6.457 5.005 2.247 7.965-6.751-4.6-6.875 4.6 2.284-7.847-6.495-5.123 8.163-.251z" clip-rule="evenodd"/></svg>
